X:100
T:Mason's Apron, The
R:reel
M:4/4
Q:1/4=220
K:A
aAAA ABAF|EFAB cABc|dBBB BcBA|Bcde fefg|
aAAA ABAF|EFAB cABc|dcde fefg|1 afec Bc A2 :|2 afed cB A2|
|:c2ec fcec|c2ec fcec|d2fd gdfd|d2fd gdfd|
c2ec fcec|c2ec fcec|dcde fefg|1 afec Bc A2 :|2 afed cB A2|
